X:1
T:Title
%%score { 1 | 2 }
L:1/8
Q:1/4=100
M:6/8
K:Eb
V:1 treble nm="Grand Piano"
V:2 bass 
V:1
 [G,E]2 [A,EF] [B,EG]2 [B,DF] | [B,EG]2 [B,FA] [EGB]2 [B,EG] | [B,DF]2 [B,EG] [DFA]2 [DGB] | %3
w: Frank~M.~Davis * * *|||
 [EAc]3 [EGB]3 | [G,E]2 [A,EF] [B,EG]2 [B,DF] | [B,EG]2 [B,FA] [EGB]2 [B,EG] | %6
w: |||
 [CEF]2 [CEG] [CEA]2 [CEF] | [A,DF]3 .[G,E]3 | [EGB]2 [B,EG] [EAc]2 [EGB] | [EGB]3 .[DFA]3 | %10
w: ||||
 [DFA]2 [B,DF] [DGB]2 [DFA] | [B,FA]3 .[B,EG]3 | [B,EG]2 [B,EA] [B,EB]2 [B,EG] | %13
w: |||
[M:15/16] [B,F]->[B,F][B,EG][A,EA]3/2- [A,EA]3 |[M:3/4] [B,EG]2 [CEA] [B,EG]2 [G,E] | %15
w: ||
 [A,DF]3 .[G,E]3 |] %16
w: |
V:2
 E,2 E, E,2 B,, | E,2 E, E,2 E, | B,,2 B,, B,,2 B,, | E,3 E,3 | E,2 E, E,2 B,, | E,2 E, E,2 E, | %6
 A,,2 A,, A,,2 A,, | B,,3 .E,3 | E,2 E, E,2 E, | B,,3 .B,,3 | B,,2 B,, B,,2 B,, | B,,3 .E,3 | %12
 E,2 F, G,2 E, |[M:15/16] D,->D,_D,C,3/2- C,3 |[M:3/4] E,2 A,, B,,2 B,, | B,,3 .E,3 |] %16

